src/pos-icons/filmstrip-off.svg

<svg height="24" viewBox="0 0 24 24" width="24" xmlns="http://www.w3.org/2000/svg"><path d="m1 4.27 1.28-1.27 18.72 18.72-1.27 1.28-3.73-3.73v1.73h-8v-2h-2v2h-2v-13.73zm17 4.73v-2h-2v2zm0 4v-2h-2v2zm0 2h-1.18l-10-10h1.18v-2h8v2h2v-2h2v15.18l-2-2zm-10-2v-1.73l-.27-.27h-1.73v2zm0 4v-2h-2v2zm-2-14v1.18l-1.18-1.18z"/></svg>

<?xml version="1.0" encoding="UTF-8"?><!DOCTYPE svg PUBLIC "-//W3C//DTD SVG 1.1//EN" "http://www.w3.org/Graphics/SVG/1.1/DTD/svg11.dtd"><svg xmlns="http://www.w3.org/2000/svg" xmlns:xlink="http://www.w3.org/1999/xlink" version="1.1" id="mdi-filmstrip-off" width="24" height="24" viewBox="0 0 24 24"><path d="M1,4.27L2.28,3L21,21.72L19.73,23L16,19.27V21H8V19H6V21H4V7.27L1,4.27M18,9V7H16V9H18M18,13V11H16V13H18M18,15H16.82L6.82,5H8V3H16V5H18V3H20V18.18L18,16.18V15M8,13V11.27L7.73,11H6V13H8M8,17V15H6V17H8M6,3V4.18L4.82,3H6Z" /></svg>
